release/img/icons/tb_cart.svg

<svg width="22" height="22" fill="none" xmlns="http://www.w3.org/2000/svg"><path d="M8.2 15.2c-.77 0-1.393.63-1.393 1.4 0 .77.623 1.4 1.393 1.4s1.4-.63 1.4-1.4c0-.77-.63-1.4-1.4-1.4zM4 4v1.4h1.4l2.52 5.313-.945 1.715a1.353 1.353 0 00-.175.672c0 .77.63 1.4 1.4 1.4h8.4v-1.4H8.494a.173.173 0 01-.175-.175l.021-.084.63-1.141h5.215c.525 0 .987-.287 1.225-.721l2.506-4.543A.702.702 0 0017.3 5.4H6.947L6.289 4H4zm11.2 11.2c-.77 0-1.393.63-1.393 1.4 0 .77.623 1.4 1.393 1.4s1.4-.63 1.4-1.4c0-.77-.63-1.4-1.4-1.4z" fill="#787878"/></svg>

<svg width="22" height="22" viewBox="0 0 22 22" fill="none" xmlns="http://www.w3.org/2000/svg">
<path d="M8.2 15.2C7.43 15.2 6.807 15.83 6.807 16.6C6.807 17.37 7.43 18 8.2 18C8.97 18 9.6 17.37 9.6 16.6C9.6 15.83 8.97 15.2 8.2 15.2ZM4 4V5.4H5.4L7.92 10.713L6.975 12.428C6.863 12.624 6.8 12.855 6.8 13.1C6.8 13.87 7.43 14.5 8.2 14.5H16.6V13.1H8.494C8.396 13.1 8.319 13.023 8.319 12.925L8.34 12.841L8.97 11.7H14.185C14.71 11.7 15.172 11.413 15.41 10.979L17.916 6.436C17.972 6.338 18 6.219 18 6.1C18 5.715 17.685 5.4 17.3 5.4H6.947L6.289 4H4ZM15.2 15.2C14.43 15.2 13.807 15.83 13.807 16.6C13.807 17.37 14.43 18 15.2 18C15.97 18 16.6 17.37 16.6 16.6C16.6 15.83 15.97 15.2 15.2 15.2Z" fill="#787878"/>
</svg>
